svg/database_search_outline.svg

<svg xmlns="http://www.w3.org/2000/svg" viewBox="0 0 24 24"><path d="M11 18.95c-3.23-.23-5-1.5-5-1.95v-2.23c1.13.55 2.5.92 4 1.1 0-.66.04-1.33.21-1.98-1.71-.22-3.24-.73-4.21-1.44V9.64c1.43.81 3.5 1.33 5.82 1.36.03-.03.05-.07.08-.1 2.2-2.19 5.6-2.49 8.1-.87V7c0-2.21-3.58-4-8-4S4 4.79 4 7v10c0 2.21 3.59 4 8 4 .34 0 .68 0 1-.03-.38-.25-.76-.53-1.1-.87-.35-.36-.65-.74-.9-1.15M12 5c3.87 0 6 1.5 6 2s-2.13 2-6 2-6-1.5-6-2 2.13-2 6-2m8.31 12.9c.44-.69.69-1.52.69-2.4 0-2.5-2-4.5-4.5-4.5S12 13 12 15.5s2 4.5 4.5 4.5c.87 0 1.69-.25 2.38-.68L22 22.39 23.39 21zm-3.81.1a2.5 2.5 0 0 1 0-5 2.5 2.5 0 0 1 0 5"/></svg>

<?xml version="1.0" encoding="UTF-8"?><!DOCTYPE svg PUBLIC "-//W3C//DTD SVG 1.1//EN" "http://www.w3.org/Graphics/SVG/1.1/DTD/svg11.dtd"><svg xmlns="http://www.w3.org/2000/svg" xmlns:xlink="http://www.w3.org/1999/xlink" version="1.1" id="mdi-database-search-outline" width="24" height="24" viewBox="0 0 24 24"><path d="M11 18.95C7.77 18.72 6 17.45 6 17V14.77C7.13 15.32 8.5 15.69 10 15.87C10 15.21 10.04 14.54 10.21 13.89C8.5 13.67 6.97 13.16 6 12.45V9.64C7.43 10.45 9.5 10.97 11.82 11C11.85 10.97 11.87 10.93 11.9 10.9C14.1 8.71 17.5 8.41 20 10.03V7C20 4.79 16.42 3 12 3S4 4.79 4 7V17C4 19.21 7.59 21 12 21C12.34 21 12.68 21 13 20.97C12.62 20.72 12.24 20.44 11.9 20.1C11.55 19.74 11.25 19.36 11 18.95M12 5C15.87 5 18 6.5 18 7S15.87 9 12 9 6 7.5 6 7 8.13 5 12 5M20.31 17.9C20.75 17.21 21 16.38 21 15.5C21 13 19 11 16.5 11S12 13 12 15.5 14 20 16.5 20C17.37 20 18.19 19.75 18.88 19.32L22 22.39L23.39 21L20.31 17.9M16.5 18C15.12 18 14 16.88 14 15.5S15.12 13 16.5 13 19 14.12 19 15.5 17.88 18 16.5 18Z" /></svg>
